X: 9661
T: De Selby Bluesyard
R: hornpipe
M: 4/4
K: Adorian
A/B/|c2BA F2AF|E2FE c3B|c2BA F2AF|B3_B=B2A|
c2BA F2AF|E2FE Trc4|E.EFA B2cB|A4A2:|
|:A/B/|c2BA d2cB|c2BA F3 A|c2BA d2(3cBA|B3B2A/B/|
c2BA d2cB|c2BA {E}F4|E2FA BJc.cB|(A3^GA3):|

